contributed-vectors/icar.svg

<svg xmlns="http://www.w3.org/2000/svg" xml:space="preserve" style="fill-rule:evenodd;clip-rule:evenodd;stroke-linejoin:round;stroke-miterlimit:2" viewBox="0 0 192 192"><path d="M164.5 21.5c0-5.519-4.481-10-10-10h-133c-5.519 0-10 4.481-10 10v133c0 5.519 4.481 10 10 10h133c5.519 0 10-4.481 10-10v-133Z" style="fill:#fff" transform="translate(8 8)"/><path d="M38.078 71.224h128.155v52.596H38.078z" style="fill:#ff837d" transform="matrix(.61801 0 0 .6959 39.61 28.134)"/><text x="53.283" y="123.821" style="font-family:&quot;Now-Bold&quot;,&quot;Now&quot;;font-weight:700;font-size:72.055px;fill:#fff" transform="translate(38.673 36.66) scale(.57951)">Car</text><text x="16.512" y="123.821" style="font-family:&quot;Now-Bold&quot;,&quot;Now&quot;;font-weight:700;font-size:72.055px;fill:#4a4a4a" transform="matrix(.55174 0 0 .55174 38.194 40.446)">i</text></svg>

<?xml version="1.0" encoding="UTF-8" standalone="no"?>
<!DOCTYPE svg PUBLIC "-//W3C//DTD SVG 1.1//EN" "http://www.w3.org/Graphics/SVG/1.1/DTD/svg11.dtd">
<svg width="100%" height="100%" viewBox="0 0 192 192" version="1.1" xmlns="http://www.w3.org/2000/svg" xmlns:xlink="http://www.w3.org/1999/xlink" xml:space="preserve" xmlns:serif="http://www.serif.com/" style="fill-rule:evenodd;clip-rule:evenodd;stroke-linejoin:round;stroke-miterlimit:2;">
    <g id="Layer1">
        <g transform="matrix(1,0,0,1,8,8)">
            <path d="M164.5,21.5C164.5,15.981 160.019,11.5 154.5,11.5L21.5,11.5C15.981,11.5 11.5,15.981 11.5,21.5L11.5,154.5C11.5,160.019 15.981,164.5 21.5,164.5L154.5,164.5C160.019,164.5 164.5,160.019 164.5,154.5L164.5,21.5Z" style="fill:white;"/>
        </g>
        <g transform="matrix(0.857752,0,0,0.857752,4.74886,11.9445)">
            <g transform="matrix(0.811304,0,0,0.811304,31.3676,18.8748)">
                <g transform="matrix(0.888083,0,0,1,11.433,-7.10543e-15)">
                    <rect x="38.078" y="71.224" width="128.155" height="52.596" style="fill:rgb(255,131,125);"/>
                </g>
                <g transform="matrix(0.832753,0,0,0.832753,10.0858,12.2523)">
                    <text x="53.283px" y="123.821px" style="font-family:'Now-Bold', 'Now';font-weight:700;font-size:72.055px;fill:white;">Car</text>
                </g>
            </g>
            <g transform="matrix(0.643244,0,0,0.643244,38.9921,33.2282)">
                <text x="16.512px" y="123.821px" style="font-family:'Now-Bold', 'Now';font-weight:700;font-size:72.055px;fill:rgb(74,74,74);">i</text>
            </g>
        </g>
    </g>
</svg>
